images/50384173.svg

<?xml version="1.0" encoding="UTF-8"?>
<svg xmlns="http://www.w3.org/2000/svg" xmlns:xlink="http://www.w3.org/1999/xlink" width="300pt" height="300pt" viewBox="0 0 300 300" version="1.1">
<defs>
<g>
<symbol overflow="visible" id="glyph0-0">
<path style="stroke:none;" d="M 0.546875 1.9375 L 0.546875 -7.75 L 6.046875 -7.75 L 6.046875 1.9375 Z M 1.171875 1.328125 L 5.4375 1.328125 L 5.4375 -7.140625 L 1.171875 -7.140625 Z M 1.171875 1.328125 "/>
</symbol>
<symbol overflow="visible" id="glyph0-1">
<path style="stroke:none;" d="M 7.078125 -7.40625 L 7.078125 -6.25 C 6.710938 -6.59375 6.320312 -6.847656 5.90625 -7.015625 C 5.5 -7.179688 5.0625 -7.265625 4.59375 -7.265625 C 3.675781 -7.265625 2.972656 -6.984375 2.484375 -6.421875 C 2.003906 -5.867188 1.765625 -5.0625 1.765625 -4 C 1.765625 -2.945312 2.003906 -2.140625 2.484375 -1.578125 C 2.972656 -1.015625 3.675781 -0.734375 4.59375 -0.734375 C 5.0625 -0.734375 5.5 -0.816406 5.90625 -0.984375 C 6.320312 -1.148438 6.710938 -1.40625 7.078125 -1.75 L 7.078125 -0.625 C 6.703125 -0.363281 6.300781 -0.164062 5.875 -0.03125 C 5.457031 0.09375 5.007812 0.15625 4.53125 0.15625 C 3.320312 0.15625 2.367188 -0.210938 1.671875 -0.953125 C 0.972656 -1.703125 0.625 -2.71875 0.625 -4 C 0.625 -5.289062 0.972656 -6.304688 1.671875 -7.046875 C 2.367188 -7.796875 3.320312 -8.171875 4.53125 -8.171875 C 5.007812 -8.171875 5.460938 -8.101562 5.890625 -7.96875 C 6.316406 -7.84375 6.710938 -7.65625 7.078125 -7.40625 Z M 7.078125 -7.40625 "/>
</symbol>
<symbol overflow="visible" id="glyph0-2">
<path style="stroke:none;" d="M 1.03125 -8.359375 L 2.03125 -8.359375 L 2.03125 0 L 1.03125 0 Z M 1.03125 -8.359375 "/>
</symbol>
<symbol overflow="visible" id="glyph0-3">
<path style="stroke:none;" d="M 1.078125 -8.015625 L 2.546875 -8.015625 L 6.09375 -1.3125 L 6.09375 -8.015625 L 7.15625 -8.015625 L 7.15625 0 L 5.6875 0 L 2.125 -6.703125 L 2.125 0 L 1.078125 0 Z M 1.078125 -8.015625 "/>
</symbol>
<symbol overflow="visible" id="glyph0-4">
<path style="stroke:none;" d="M 1.078125 -8.015625 L 2.171875 -8.015625 L 2.171875 -4.734375 L 6.109375 -4.734375 L 6.109375 -8.015625 L 7.1875 -8.015625 L 7.1875 0 L 6.109375 0 L 6.109375 -3.8125 L 2.171875 -3.8125 L 2.171875 0 L 1.078125 0 Z M 1.078125 -8.015625 "/>
</symbol>
<symbol overflow="visible" id="glyph0-5">
<path style="stroke:none;" d="M 4.328125 -7.28125 C 3.546875 -7.28125 2.921875 -6.984375 2.453125 -6.390625 C 1.992188 -5.804688 1.765625 -5.007812 1.765625 -4 C 1.765625 -2.988281 1.992188 -2.1875 2.453125 -1.59375 C 2.921875 -1.007812 3.546875 -0.71875 4.328125 -0.71875 C 5.117188 -0.71875 5.742188 -1.007812 6.203125 -1.59375 C 6.660156 -2.1875 6.890625 -2.988281 6.890625 -4 C 6.890625 -5.007812 6.660156 -5.804688 6.203125 -6.390625 C 5.742188 -6.984375 5.117188 -7.28125 4.328125 -7.28125 Z M 4.328125 -8.171875 C 5.453125 -8.171875 6.351562 -7.789062 7.03125 -7.03125 C 7.707031 -6.28125 8.046875 -5.269531 8.046875 -4 C 8.046875 -2.738281 7.707031 -1.726562 7.03125 -0.96875 C 6.351562 -0.21875 5.453125 0.15625 4.328125 0.15625 C 3.203125 0.15625 2.300781 -0.21875 1.625 -0.96875 C 0.957031 -1.71875 0.625 -2.726562 0.625 -4 C 0.625 -5.269531 0.957031 -6.28125 1.625 -7.03125 C 2.300781 -7.789062 3.203125 -8.171875 4.328125 -8.171875 Z M 4.328125 -8.171875 "/>
</symbol>
</g>
</defs>
<g id="surface12805">
<rect x="0" y="0" width="300" height="300" style="fill:rgb(100%,100%,100%);fill-opacity:1;stroke:none;"/>
<path style="fill:none;stroke-width:1.2;stroke-linecap:butt;stroke-linejoin:miter;stroke:rgb(0%,80%,0%);stroke-opacity:1;stroke-miterlimit:10;" d="M 35.25 145.148438 L 46.183594 136.871094 "/>
<path style="fill:none;stroke-width:1.2;stroke-linecap:butt;stroke-linejoin:miter;stroke:rgb(0%,0%,0%);stroke-opacity:1;stroke-miterlimit:10;" d="M 46.183594 136.871094 L 57.117188 128.59375 "/>
<path style=" stroke:none;fill-rule:nonzero;fill:rgb(100%,100%,100%);fill-opacity:1;" d="M 24.25 138.648438 L 35.25 138.648438 L 35.25 151.648438 L 24.25 151.648438 Z M 24.25 138.648438 "/>
<g style="fill:rgb(0%,80%,0%);fill-opacity:1;">
  <use xlink:href="#glyph0-1" x="24.25" y="148.549805"/>
  <use xlink:href="#glyph0-2" x="31.701172" y="148.549805"/>
</g>
<path style="fill:none;stroke-width:1.2;stroke-linecap:butt;stroke-linejoin:miter;stroke:rgb(0%,0%,0%);stroke-opacity:1;stroke-miterlimit:10;" d="M 57.117188 128.59375 L 53.714844 101.378906 "/>
<path style="fill:none;stroke-width:1.2;stroke-linecap:butt;stroke-linejoin:miter;stroke:rgb(0%,0%,0%);stroke-opacity:1;stroke-miterlimit:10;" d="M 63.179688 125.070312 L 60.457031 103.296875 "/>
<path style="fill:none;stroke-width:1.2;stroke-linecap:butt;stroke-linejoin:miter;stroke:rgb(0%,0%,0%);stroke-opacity:1;stroke-miterlimit:10;" d="M 82.386719 139.253906 L 57.117188 128.59375 "/>
<path style="fill:none;stroke-width:1.2;stroke-linecap:butt;stroke-linejoin:miter;stroke:rgb(0%,0%,0%);stroke-opacity:1;stroke-miterlimit:10;" d="M 53.714844 101.378906 L 64.648438 93.097656 "/>
<path style="fill:none;stroke-width:1.2;stroke-linecap:butt;stroke-linejoin:miter;stroke:rgb(0%,0%,100%);stroke-opacity:1;stroke-miterlimit:10;" d="M 64.648438 93.097656 L 75.582031 84.820312 "/>
<path style="fill:none;stroke-width:1.2;stroke-linecap:butt;stroke-linejoin:miter;stroke:rgb(0%,0%,100%);stroke-opacity:1;stroke-miterlimit:10;" d="M 75.582031 84.820312 L 88.214844 90.152344 "/>
<path style="fill:none;stroke-width:1.2;stroke-linecap:butt;stroke-linejoin:miter;stroke:rgb(0%,0%,0%);stroke-opacity:1;stroke-miterlimit:10;" d="M 88.214844 90.152344 L 100.851562 95.480469 "/>
<path style="fill:none;stroke-width:1.2;stroke-linecap:butt;stroke-linejoin:miter;stroke:rgb(0%,0%,100%);stroke-opacity:1;stroke-miterlimit:10;" d="M 75.597656 91.832031 L 85.707031 96.097656 "/>
<path style="fill:none;stroke-width:1.2;stroke-linecap:butt;stroke-linejoin:miter;stroke:rgb(0%,0%,0%);stroke-opacity:1;stroke-miterlimit:10;" d="M 85.707031 96.097656 L 95.816406 100.363281 "/>
<path style=" stroke:none;fill-rule:nonzero;fill:rgb(100%,100%,100%);fill-opacity:1;" d="M 71.582031 78.320312 L 79.582031 78.320312 L 79.582031 91.320312 L 71.582031 91.320312 Z M 71.582031 78.320312 "/>
<g style="fill:rgb(0%,0%,100%);fill-opacity:1;">
  <use xlink:href="#glyph0-3" x="71.582031" y="88.22168"/>
</g>
<path style="fill:none;stroke-width:1.2;stroke-linecap:butt;stroke-linejoin:miter;stroke:rgb(0%,0%,0%);stroke-opacity:1;stroke-miterlimit:10;" d="M 100.851562 95.480469 L 102.554688 109.089844 "/>
<path style="fill:none;stroke-width:1.2;stroke-linecap:butt;stroke-linejoin:miter;stroke:rgb(0%,0%,100%);stroke-opacity:1;stroke-miterlimit:10;" d="M 102.554688 109.089844 L 104.253906 122.695312 "/>
<path style="fill:none;stroke-width:1.2;stroke-linecap:butt;stroke-linejoin:miter;stroke:rgb(0%,0%,0%);stroke-opacity:1;stroke-miterlimit:10;" d="M 100.851562 95.480469 L 111.785156 87.203125 "/>
<path style="fill:none;stroke-width:1.2;stroke-linecap:butt;stroke-linejoin:miter;stroke:rgb(0%,0%,100%);stroke-opacity:1;stroke-miterlimit:10;" d="M 111.785156 87.203125 L 122.71875 78.925781 "/>
<path style="fill:none;stroke-width:1.2;stroke-linecap:butt;stroke-linejoin:miter;stroke:rgb(0%,0%,100%);stroke-opacity:1;stroke-miterlimit:10;" d="M 104.253906 122.695312 L 93.320312 130.972656 "/>
<path style="fill:none;stroke-width:1.2;stroke-linecap:butt;stroke-linejoin:miter;stroke:rgb(0%,0%,0%);stroke-opacity:1;stroke-miterlimit:10;" d="M 93.320312 130.972656 L 82.386719 139.253906 "/>
<path style="fill:none;stroke-width:1.2;stroke-linecap:butt;stroke-linejoin:miter;stroke:rgb(0%,0%,100%);stroke-opacity:1;stroke-miterlimit:10;" d="M 98.171875 119.207031 L 89.425781 125.828125 "/>
<path style="fill:none;stroke-width:1.2;stroke-linecap:butt;stroke-linejoin:miter;stroke:rgb(0%,0%,0%);stroke-opacity:1;stroke-miterlimit:10;" d="M 89.425781 125.828125 L 80.679688 132.453125 "/>
<path style=" stroke:none;fill-rule:nonzero;fill:rgb(100%,100%,100%);fill-opacity:1;" d="M 100.253906 116.195312 L 108.253906 116.195312 L 108.253906 129.195312 L 100.253906 129.195312 Z M 100.253906 116.195312 "/>
<g style="fill:rgb(0%,0%,100%);fill-opacity:1;">
  <use xlink:href="#glyph0-3" x="100.253906" y="126.09668"/>
</g>
<path style="fill:none;stroke-width:1.2;stroke-linecap:butt;stroke-linejoin:miter;stroke:rgb(0%,0%,0%);stroke-opacity:1;stroke-miterlimit:10;" d="M 82.386719 139.253906 L 85.792969 166.46875 "/>
<path style="fill:none;stroke-width:1.2;stroke-linecap:butt;stroke-linejoin:miter;stroke:rgb(0%,0%,0%);stroke-opacity:1;stroke-miterlimit:10;" d="M 85.792969 166.46875 L 109.808594 179.710938 "/>
<path style="fill:none;stroke-width:1.2;stroke-linecap:butt;stroke-linejoin:miter;stroke:rgb(0%,0%,0%);stroke-opacity:1;stroke-miterlimit:10;" d="M 65.773438 185.21875 L 85.792969 166.46875 "/>
<path style="fill:none;stroke-width:1.2;stroke-linecap:butt;stroke-linejoin:miter;stroke:rgb(0%,0%,0%);stroke-opacity:1;stroke-miterlimit:10;" d="M 72.1875 188.054688 L 88.203125 173.050781 "/>
<path style="fill:none;stroke-width:1.2;stroke-linecap:butt;stroke-linejoin:miter;stroke:rgb(0%,0%,0%);stroke-opacity:1;stroke-miterlimit:10;" d="M 109.808594 179.710938 L 104.636719 206.644531 "/>
<path style="fill:none;stroke-width:1.2;stroke-linecap:butt;stroke-linejoin:miter;stroke:rgb(0%,0%,0%);stroke-opacity:1;stroke-miterlimit:10;" d="M 115.628906 183.621094 L 111.492188 205.167969 "/>
<path style="fill:none;stroke-width:1.2;stroke-linecap:butt;stroke-linejoin:miter;stroke:rgb(0%,0%,0%);stroke-opacity:1;stroke-miterlimit:10;" d="M 135.722656 170.722656 L 109.808594 179.710938 "/>
<path style="fill:none;stroke-width:1.2;stroke-linecap:butt;stroke-linejoin:miter;stroke:rgb(0%,0%,0%);stroke-opacity:1;stroke-miterlimit:10;" d="M 104.636719 206.644531 L 91.03125 208.347656 "/>
<path style="fill:none;stroke-width:1.2;stroke-linecap:butt;stroke-linejoin:miter;stroke:rgb(0%,0%,100%);stroke-opacity:1;stroke-miterlimit:10;" d="M 91.03125 208.347656 L 77.421875 210.050781 "/>
<path style="fill:none;stroke-width:1.2;stroke-linecap:butt;stroke-linejoin:miter;stroke:rgb(0%,0%,0%);stroke-opacity:1;stroke-miterlimit:10;" d="M 104.636719 206.644531 L 125.378906 224.59375 "/>
<path style="fill:none;stroke-width:1.2;stroke-linecap:butt;stroke-linejoin:miter;stroke:rgb(0%,0%,100%);stroke-opacity:1;stroke-miterlimit:10;" d="M 77.421875 210.050781 L 71.597656 197.632812 "/>
<path style="fill:none;stroke-width:1.2;stroke-linecap:butt;stroke-linejoin:miter;stroke:rgb(0%,0%,0%);stroke-opacity:1;stroke-miterlimit:10;" d="M 71.597656 197.632812 L 65.773438 185.21875 "/>
<path style=" stroke:none;fill-rule:nonzero;fill:rgb(100%,100%,100%);fill-opacity:1;" d="M 69.421875 203.550781 L 86.421875 203.550781 L 86.421875 216.550781 L 69.421875 216.550781 Z M 69.421875 203.550781 "/>
<g style="fill:rgb(0%,0%,100%);fill-opacity:1;">
  <use xlink:href="#glyph0-3" x="69.421875" y="213.452148"/>
  <use xlink:href="#glyph0-4" x="77.405273" y="213.452148"/>
</g>
<path style="fill:none;stroke-width:1.2;stroke-linecap:butt;stroke-linejoin:miter;stroke:rgb(0%,0%,0%);stroke-opacity:1;stroke-miterlimit:10;" d="M 125.378906 224.59375 L 151.289062 215.605469 "/>
<path style="fill:none;stroke-width:1.2;stroke-linecap:butt;stroke-linejoin:miter;stroke:rgb(0%,0%,0%);stroke-opacity:1;stroke-miterlimit:10;" d="M 125.855469 217.597656 L 146.585938 210.40625 "/>
<path style="fill:none;stroke-width:1.2;stroke-linecap:butt;stroke-linejoin:miter;stroke:rgb(0%,0%,0%);stroke-opacity:1;stroke-miterlimit:10;" d="M 151.289062 215.605469 L 156.464844 188.671875 "/>
<path style="fill:none;stroke-width:1.2;stroke-linecap:butt;stroke-linejoin:miter;stroke:rgb(0%,0%,0%);stroke-opacity:1;stroke-miterlimit:10;" d="M 156.464844 188.671875 L 135.722656 170.722656 "/>
<path style="fill:none;stroke-width:1.2;stroke-linecap:butt;stroke-linejoin:miter;stroke:rgb(0%,0%,0%);stroke-opacity:1;stroke-miterlimit:10;" d="M 150.167969 191.753906 L 133.574219 177.398438 "/>
<path style="fill:none;stroke-width:1.2;stroke-linecap:butt;stroke-linejoin:miter;stroke:rgb(0%,0%,100%);stroke-opacity:1;stroke-miterlimit:10;" d="M 122.71875 78.925781 L 135.355469 84.257812 "/>
<path style="fill:none;stroke-width:1.2;stroke-linecap:butt;stroke-linejoin:miter;stroke:rgb(0%,0%,0%);stroke-opacity:1;stroke-miterlimit:10;" d="M 135.355469 84.257812 L 147.988281 89.585938 "/>
<path style=" stroke:none;fill-rule:nonzero;fill:rgb(100%,100%,100%);fill-opacity:1;" d="M 114.71875 72.425781 L 131.71875 72.425781 L 131.71875 85.425781 L 114.71875 85.425781 Z M 114.71875 72.425781 "/>
<g style="fill:rgb(0%,0%,100%);fill-opacity:1;">
  <use xlink:href="#glyph0-3" x="114.71875" y="82.327148"/>
  <use xlink:href="#glyph0-4" x="122.702148" y="82.327148"/>
</g>
<path style="fill:none;stroke-width:1.2;stroke-linecap:butt;stroke-linejoin:miter;stroke:rgb(0%,0%,0%);stroke-opacity:1;stroke-miterlimit:10;" d="M 147.988281 89.585938 L 171.46875 75.40625 "/>
<path style="fill:none;stroke-width:1.2;stroke-linecap:butt;stroke-linejoin:miter;stroke:rgb(0%,0%,0%);stroke-opacity:1;stroke-miterlimit:10;" d="M 154.21875 116.296875 L 147.988281 89.585938 "/>
<path style="fill:none;stroke-width:1.2;stroke-linecap:butt;stroke-linejoin:miter;stroke:rgb(0%,0%,0%);stroke-opacity:1;stroke-miterlimit:10;" d="M 171.46875 75.40625 L 192.207031 93.355469 "/>
<path style="fill:none;stroke-width:1.2;stroke-linecap:butt;stroke-linejoin:miter;stroke:rgb(0%,0%,0%);stroke-opacity:1;stroke-miterlimit:10;" d="M 192.207031 93.355469 L 186.878906 105.988281 "/>
<path style="fill:none;stroke-width:1.2;stroke-linecap:butt;stroke-linejoin:miter;stroke:rgb(0%,0%,100%);stroke-opacity:1;stroke-miterlimit:10;" d="M 186.878906 105.988281 L 181.546875 118.625 "/>
<path style="fill:none;stroke-width:1.2;stroke-linecap:butt;stroke-linejoin:miter;stroke:rgb(0%,0%,100%);stroke-opacity:1;stroke-miterlimit:10;" d="M 181.546875 118.625 L 167.882812 117.460938 "/>
<path style="fill:none;stroke-width:1.2;stroke-linecap:butt;stroke-linejoin:miter;stroke:rgb(0%,0%,0%);stroke-opacity:1;stroke-miterlimit:10;" d="M 167.882812 117.460938 L 154.21875 116.296875 "/>
<path style="fill:none;stroke-width:1.2;stroke-linecap:butt;stroke-linejoin:miter;stroke:rgb(0%,0%,100%);stroke-opacity:1;stroke-miterlimit:10;" d="M 181.546875 118.625 L 188.636719 130.363281 "/>
<path style="fill:none;stroke-width:1.2;stroke-linecap:butt;stroke-linejoin:miter;stroke:rgb(0%,0%,0%);stroke-opacity:1;stroke-miterlimit:10;" d="M 188.636719 130.363281 L 195.726562 142.101562 "/>
<path style=" stroke:none;fill-rule:nonzero;fill:rgb(100%,100%,100%);fill-opacity:1;" d="M 177.546875 112.125 L 185.546875 112.125 L 185.546875 125.125 L 177.546875 125.125 Z M 177.546875 112.125 "/>
<g style="fill:rgb(0%,0%,100%);fill-opacity:1;">
  <use xlink:href="#glyph0-3" x="177.546875" y="122.026367"/>
</g>
<path style="fill:none;stroke-width:1.2;stroke-linecap:butt;stroke-linejoin:miter;stroke:rgb(0%,0%,0%);stroke-opacity:1;stroke-miterlimit:10;" d="M 192.902344 140.546875 L 186.28125 152.554688 "/>
<path style="fill:none;stroke-width:1.2;stroke-linecap:butt;stroke-linejoin:miter;stroke:rgb(100%,0%,0%);stroke-opacity:1;stroke-miterlimit:10;" d="M 186.28125 152.554688 L 179.660156 164.5625 "/>
<path style="fill:none;stroke-width:1.2;stroke-linecap:butt;stroke-linejoin:miter;stroke:rgb(0%,0%,0%);stroke-opacity:1;stroke-miterlimit:10;" d="M 198.554688 143.660156 L 191.929688 155.671875 "/>
<path style="fill:none;stroke-width:1.2;stroke-linecap:butt;stroke-linejoin:miter;stroke:rgb(100%,0%,0%);stroke-opacity:1;stroke-miterlimit:10;" d="M 191.929688 155.671875 L 185.308594 167.679688 "/>
<path style="fill:none;stroke-width:1.2;stroke-linecap:butt;stroke-linejoin:miter;stroke:rgb(0%,0%,0%);stroke-opacity:1;stroke-miterlimit:10;" d="M 195.726562 142.101562 L 209.4375 141.832031 "/>
<path style="fill:none;stroke-width:1.2;stroke-linecap:butt;stroke-linejoin:miter;stroke:rgb(0%,0%,100%);stroke-opacity:1;stroke-miterlimit:10;" d="M 209.4375 141.832031 L 223.148438 141.5625 "/>
<path style=" stroke:none;fill-rule:nonzero;fill:rgb(100%,100%,100%);fill-opacity:1;" d="M 173.484375 159.621094 L 182.484375 159.621094 L 182.484375 172.621094 L 173.484375 172.621094 Z M 173.484375 159.621094 "/>
<g style="fill:rgb(100%,0%,0%);fill-opacity:1;">
  <use xlink:href="#glyph0-5" x="173.484375" y="169.522461"/>
</g>
<path style="fill:none;stroke-width:1.2;stroke-linecap:butt;stroke-linejoin:miter;stroke:rgb(0%,0%,100%);stroke-opacity:1;stroke-miterlimit:10;" d="M 223.148438 141.5625 L 230.238281 153.300781 "/>
<path style="fill:none;stroke-width:1.2;stroke-linecap:butt;stroke-linejoin:miter;stroke:rgb(0%,0%,0%);stroke-opacity:1;stroke-miterlimit:10;" d="M 230.238281 153.300781 L 237.328125 165.039062 "/>
<path style=" stroke:none;fill-rule:nonzero;fill:rgb(100%,100%,100%);fill-opacity:1;" d="M 215.148438 135.0625 L 232.148438 135.0625 L 232.148438 148.0625 L 215.148438 148.0625 Z M 215.148438 135.0625 "/>
<g style="fill:rgb(0%,0%,100%);fill-opacity:1;">
  <use xlink:href="#glyph0-3" x="215.148438" y="144.963867"/>
  <use xlink:href="#glyph0-4" x="223.131836" y="144.963867"/>
</g>
<path style="fill:none;stroke-width:1.2;stroke-linecap:butt;stroke-linejoin:miter;stroke:rgb(0%,0%,0%);stroke-opacity:1;stroke-miterlimit:10;" d="M 237.328125 165.039062 L 264.75 164.5 "/>
</g>
</svg>

<svg xmlns="http://www.w3.org/2000/svg" xmlns:xlink="http://www.w3.org/1999/xlink" width="300pt" height="300pt" viewBox="0 0 300 300"><defs><symbol overflow="visible"><path d="M.547 1.938V-7.75h5.5v9.688zm.625-.61h4.266v-8.47H1.171zm0 0"/></symbol><symbol overflow="visible" id="a"><path d="M7.078-7.406v1.156c-.367-.344-.758-.598-1.172-.766-.406-.164-.843-.25-1.312-.25-.918 0-1.62.282-2.11.844-.48.555-.718 1.36-.718 2.422 0 1.055.238 1.86.718 2.422.49.562 1.192.844 2.11.844.468 0 .906-.082 1.312-.25.414-.164.805-.422 1.172-.766v1.125c-.375.262-.777.46-1.203.594-.418.124-.867.186-1.344.186-1.21 0-2.163-.367-2.858-1.11C.972-1.703.625-2.718.625-4c0-1.29.348-2.305 1.047-3.047.695-.75 1.648-1.125 2.86-1.125.476 0 .93.07 1.36.203.424.126.82.314 1.186.564zm0 0"/></symbol><symbol overflow="visible" id="b"><path d="M1.03-8.36h1V0h-1zm0 0"/></symbol><symbol overflow="visible" id="c"><path d="M1.078-8.016h1.47l3.546 6.704v-6.704h1.062V0H5.688L2.124-6.703V0H1.078zm0 0"/></symbol><symbol overflow="visible" id="d"><path d="M1.078-8.016h1.094v3.282H6.11v-3.282h1.077V0H6.11v-3.813H2.17V0H1.078zm0 0"/></symbol><symbol overflow="visible" id="e"><path d="M4.328-7.28c-.78 0-1.406.296-1.875.89-.46.585-.687 1.382-.687 2.39 0 1.012.226 1.813.687 2.406.47.586 1.094.875 1.875.875.79 0 1.414-.288 1.875-.874.457-.593.688-1.394.688-2.406 0-1.008-.23-1.805-.687-2.39-.46-.594-1.086-.89-1.875-.89zm0-.892c1.125 0 2.024.383 2.703 1.14C7.708-6.28 8.048-5.27 8.048-4c0 1.262-.34 2.273-1.016 3.03C6.353-.22 5.454.157 4.33.157S2.3-.22 1.625-.97c-.668-.75-1-1.757-1-3.03 0-1.27.332-2.28 1-3.03.676-.76 1.578-1.142 2.703-1.142zm0 0"/></symbol></defs><g><path fill="#fff" d="M0 0h300v300H0z"/><path d="M35.25 145.148l10.934-8.277" stroke-width="1.2" stroke="#0c0" stroke-miterlimit="10" fill="none"/><path d="M46.184 136.87l10.933-8.276" stroke-width="1.2" stroke="#000" stroke-miterlimit="10" fill="none"/><path d="M24.25 138.648h11v13h-11zm0 0" fill="#fff"/><g fill="#0c0"><use xlink:href="#a" x="24.25" y="148.55"/><use xlink:href="#b" x="31.701" y="148.55"/></g><path d="M57.117 128.594l-3.402-27.215M63.18 125.07l-2.723-21.773M82.387 139.254l-25.27-10.66M53.715 101.38l10.933-8.282" stroke-width="1.2" stroke="#000" stroke-miterlimit="10" fill="none"/><path d="M64.648 93.098l10.934-8.278M75.582 84.82l12.633 5.332" stroke-width="1.2" stroke="#00f" stroke-miterlimit="10" fill="none"/><path d="M88.215 90.152l12.637 5.328" stroke-width="1.2" stroke="#000" stroke-miterlimit="10" fill="none"/><path d="M75.598 91.832l10.11 4.266" stroke-width="1.2" stroke="#00f" stroke-miterlimit="10" fill="none"/><path d="M85.707 96.098l10.11 4.265" stroke-width="1.2" stroke="#000" stroke-miterlimit="10" fill="none"/><path d="M71.582 78.32h8v13h-8zm0 0" fill="#fff"/><use xlink:href="#c" x="71.582" y="88.222" fill="#00f"/><path d="M100.852 95.48l1.703 13.61" stroke-width="1.2" stroke="#000" stroke-miterlimit="10" fill="none"/><path d="M102.555 109.09l1.7 13.605" stroke-width="1.2" stroke="#00f" stroke-miterlimit="10" fill="none"/><path d="M100.852 95.48l10.933-8.277" stroke-width="1.2" stroke="#000" stroke-miterlimit="10" fill="none"/><path d="M111.785 87.203l10.934-8.277M104.254 122.695l-10.934 8.278" stroke-width="1.2" stroke="#00f" stroke-miterlimit="10" fill="none"/><path d="M93.32 130.973l-10.933 8.28" stroke-width="1.2" stroke="#000" stroke-miterlimit="10" fill="none"/><path d="M98.172 119.207l-8.746 6.62" stroke-width="1.2" stroke="#00f" stroke-miterlimit="10" fill="none"/><path d="M89.426 125.828l-8.746 6.625" stroke-width="1.2" stroke="#000" stroke-miterlimit="10" fill="none"/><path d="M100.254 116.195h8v13h-8zm0 0" fill="#fff"/><use xlink:href="#c" x="100.254" y="126.097" fill="#00f"/><path d="M82.387 139.254l3.406 27.215M85.793 166.47l24.016 13.24M65.773 185.22l20.02-18.75M72.188 188.055l16.015-15.004M109.81 179.71l-5.173 26.935M115.63 183.62l-4.138 21.548M135.723 170.723l-25.914 8.988M104.637 206.645l-13.606 1.703" stroke-width="1.2" stroke="#000" stroke-miterlimit="10" fill="none"/><path d="M91.03 208.348l-13.608 1.703" stroke-width="1.2" stroke="#00f" stroke-miterlimit="10" fill="none"/><path d="M104.637 206.645l20.742 17.95" stroke-width="1.2" stroke="#000" stroke-miterlimit="10" fill="none"/><path d="M77.422 210.05l-5.824-12.417" stroke-width="1.2" stroke="#00f" stroke-miterlimit="10" fill="none"/><path d="M71.598 197.633l-5.825-12.414" stroke-width="1.2" stroke="#000" stroke-miterlimit="10" fill="none"/><path d="M69.422 203.55h17v13h-17zm0 0" fill="#fff"/><g fill="#00f"><use xlink:href="#c" x="69.422" y="213.452"/><use xlink:href="#d" x="77.405" y="213.452"/></g><path d="M125.38 224.594l25.91-8.99M125.855 217.598l20.73-7.192M151.29 215.605l5.175-26.933M156.465 188.672l-20.742-17.95M150.168 191.754l-16.594-14.356" stroke-width="1.2" stroke="#000" stroke-miterlimit="10" fill="none"/><path d="M122.72 78.926l12.635 5.332" stroke-width="1.2" stroke="#00f" stroke-miterlimit="10" fill="none"/><path d="M135.355 84.258l12.633 5.328" stroke-width="1.2" stroke="#000" stroke-miterlimit="10" fill="none"/><path d="M114.72 72.426h17v13h-17zm0 0" fill="#fff"/><g fill="#00f"><use xlink:href="#c" x="114.719" y="82.327"/><use xlink:href="#d" x="122.702" y="82.327"/></g><path d="M147.988 89.586l23.48-14.18M154.22 116.297l-6.232-26.71M171.47 75.406l20.737 17.95M192.207 93.355l-5.328 12.633" stroke-width="1.2" stroke="#000" stroke-miterlimit="10" fill="none"/><path d="M186.88 105.988l-5.333 12.637M181.547 118.625l-13.664-1.164" stroke-width="1.2" stroke="#00f" stroke-miterlimit="10" fill="none"/><path d="M167.883 117.46l-13.664-1.163" stroke-width="1.2" stroke="#000" stroke-miterlimit="10" fill="none"/><path d="M181.547 118.625l7.09 11.738" stroke-width="1.2" stroke="#00f" stroke-miterlimit="10" fill="none"/><path d="M188.637 130.363l7.09 11.74" stroke-width="1.2" stroke="#000" stroke-miterlimit="10" fill="none"/><path d="M177.547 112.125h8v13h-8zm0 0" fill="#fff"/><use xlink:href="#c" x="177.547" y="122.026" fill="#00f"/><path d="M192.902 140.547l-6.62 12.008" stroke-width="1.2" stroke="#000" stroke-miterlimit="10" fill="none"/><path d="M186.28 152.555l-6.62 12.007" stroke-width="1.2" stroke="#f00" stroke-miterlimit="10" fill="none"/><path d="M198.555 143.66l-6.625 12.012" stroke-width="1.2" stroke="#000" stroke-miterlimit="10" fill="none"/><path d="M191.93 155.672l-6.62 12.008" stroke-width="1.2" stroke="#f00" stroke-miterlimit="10" fill="none"/><path d="M195.727 142.102l13.71-.27" stroke-width="1.2" stroke="#000" stroke-miterlimit="10" fill="none"/><path d="M209.438 141.832l13.71-.27" stroke-width="1.2" stroke="#00f" stroke-miterlimit="10" fill="none"/><path d="M173.484 159.62h9v13h-9zm0 0" fill="#fff"/><use xlink:href="#e" x="173.484" y="169.522" fill="#f00"/><path d="M223.148 141.563l7.09 11.738" stroke-width="1.2" stroke="#00f" stroke-miterlimit="10" fill="none"/><path d="M230.238 153.3l7.09 11.74" stroke-width="1.2" stroke="#000" stroke-miterlimit="10" fill="none"/><path d="M215.148 135.063h17v13h-17zm0 0" fill="#fff"/><g fill="#00f"><use xlink:href="#c" x="215.148" y="144.964"/><use xlink:href="#d" x="223.132" y="144.964"/></g><path d="M237.328 165.04l27.422-.54" stroke-width="1.2" stroke="#000" stroke-miterlimit="10" fill="none"/></g></svg>
